X: 1
T: Polska fr\aan Tving
C: efter Blekings Spelmansf\"orbund
O: ARC EUCD 1108 [11/96]
R: pols(ka)
Z: 2020 John Chambers <jc:trillian.mit.edu>
S: https://www.facebook.com/groups/Fiddletuneoftheday/ 2020-11-09
S: https://www.facebook.com/groups/Fiddletuneoftheday/photos/
M: 3/4
L: 1/16
K: Am
|:\
e4 (ef)ed d2cB | (cd)ef (ga)gf f2e2 |\
e4 (ef)ed d2cB | (cd)ef (ga)gf f2e2 |\
e3(d cB)cd e2(ed) | (cd)cB B2A2 A4 ::\
e2cc c2cc c2cc |
(dc)BA ^G2BB G2B2 |\
e2cc c2cc c2cc | (dc)BA ^G2BB G2B2 |\
(A^G)AB (cB)cd e4 | a2a^g b2bg e3(g |\
a2)a^g (ab)ag e3d | (cB)A^G G2A2 A4 :|
